local/share/icons/dracula-icons-main/scalable/apps/preferences-system-network-ethernet.svg

<?xml version="1.0" encoding="UTF-8"?>
<svg xmlns="http://www.w3.org/2000/svg" xmlns:xlink="http://www.w3.org/1999/xlink" width="64" height="64" viewBox="0 0 64 64">
<defs>
<filter id="filter-remove-color" x="0%" y="0%" width="100%" height="100%">
<feColorMatrix color-interpolation-filters="sRGB" values="0 0 0 0 1 0 0 0 0 1 0 0 0 0 1 0 0 0 1 0" />
</filter>
<mask id="mask-0">
<g filter="url(#filter-remove-color)">
<rect x="-6.4" y="-6.4" width="76.8" height="76.8" fill="rgb(0%, 0%, 0%)" fill-opacity="0.35"/>
</g>
</mask>
<clipPath id="clip-0">
<rect x="0" y="0" width="17" height="17"/>
</clipPath>
<g id="source-9732" clip-path="url(#clip-0)">
<path fill-rule="nonzero" fill="rgb(100%, 100%, 100%)" fill-opacity="1" d="M 7.144531 11.113281 L 6.613281 10.320312 L 5.292969 10.320312 L 5.292969 5.820312 L 11.640625 5.820312 L 11.640625 10.320312 L 10.582031 10.320312 L 9.789062 11.113281 Z M 7.144531 11.113281 "/>
</g>
<mask id="mask-1">
<g filter="url(#filter-remove-color)">
<rect x="-6.4" y="-6.4" width="76.8" height="76.8" fill="rgb(0%, 0%, 0%)" fill-opacity="0.5"/>
</g>
</mask>
<clipPath id="clip-1">
<rect x="0" y="0" width="17" height="17"/>
</clipPath>
<g id="source-9736" clip-path="url(#clip-1)">
<path fill-rule="nonzero" fill="rgb(100%, 100%, 100%)" fill-opacity="1" d="M 6.085938 6.613281 L 6.878906 6.613281 L 6.878906 5.820312 L 6.085938 5.820312 Z M 7.410156 6.613281 L 8.203125 6.613281 L 8.203125 5.820312 L 7.410156 5.820312 Z M 8.730469 6.613281 L 9.527344 6.613281 L 9.527344 5.820312 L 8.730469 5.820312 Z M 10.054688 6.613281 L 10.847656 6.613281 L 10.847656 5.820312 L 10.054688 5.820312 Z M 10.054688 6.613281 "/>
</g>
</defs>
<path fill-rule="nonzero" fill="rgb(17.647059%, 19.215686%, 20.784314%)" fill-opacity="1" d="M 15.609375 8.46875 C 15.609375 12.414062 12.414062 15.609375 8.46875 15.609375 C 4.519531 15.609375 1.324219 12.414062 1.324219 8.46875 C 1.324219 4.519531 4.519531 1.324219 8.46875 1.324219 C 12.414062 1.324219 15.609375 4.519531 15.609375 8.46875 Z M 15.609375 8.46875 "/>
<path fill-rule="nonzero" fill="rgb(100%, 100%, 100%)" fill-opacity="1" d="M 4.558594 4.761719 C 4.378906 4.761719 4.234375 4.914062 4.234375 5.097656 L 4.234375 11.039062 C 4.234375 11.226562 4.378906 11.378906 4.558594 11.378906 L 5.820312 11.378906 L 6.511719 12.171875 L 10.421875 12.171875 L 11.113281 11.378906 L 12.375 11.378906 C 12.554688 11.378906 12.699219 11.226562 12.699219 11.039062 L 12.699219 5.097656 C 12.699219 4.914062 12.554688 4.761719 12.375 4.761719 Z M 5.292969 5.820312 L 11.640625 5.820312 L 11.640625 10.320312 L 10.582031 10.320312 L 9.789062 11.113281 L 7.144531 11.113281 L 6.613281 10.320312 L 5.292969 10.320312 Z M 5.292969 5.820312 "/>
<g mask="url(#mask-0)">
<use xlink:href="#source-9732"/>
</g>
<g mask="url(#mask-1)">
<use xlink:href="#source-9736"/>
</g>
</svg>

<svg width="64" height="64" version="1.1" viewBox="0 0 16.934 16.934" xmlns="http://www.w3.org/2000/svg">
 <circle cx="8.467" cy="8.467" r="7.144" fill="#2d3135" stroke-width=".26459" style="paint-order:markers stroke fill"/>
 <g fill="#fff" stroke-width=".26459">
  <path d="m4.559 4.7627c-0.18019 0-0.32545 0.15002-0.32545 0.33656v5.9417c0 0.18654 0.14526 0.33603 0.32545 0.33656h1.2621l0.69191 0.79378h3.908l0.69191-0.79378h1.2621c0.18019 0 0.32545-0.15002 0.32545-0.33656v-5.9417c0-0.18654-0.14526-0.33656-0.32545-0.33656zm0.73292 1.0584h6.3503v4.4981h-1.0584l-0.79378 0.79378h-2.6459l-0.52919-0.79378h-1.323z" style="paint-order:markers stroke fill"/>
  <path d="m7.144 11.113-0.52919-0.79378h-1.323v-4.4981h6.3503v4.4981h-1.0584l-0.79378 0.79378z" opacity=".35"/>
  <path d="m6.0857 6.6148h0.79378v-0.79378h-0.79378zm1.323 0h0.79378v-0.79378h-0.79378zm1.323 0h0.79378v-0.79378h-0.79378zm1.323 0h0.79378v-0.79378h-0.79378z" opacity=".5"/>
 </g>
</svg>
